X: 1
T: Hello-Goodbye
T: 8x32S 3C (RSCDS Bk 51)
P: Heike Nagorny
C: Anselm Lingnau
C: arr. T. Traub 8-12-2017
M: 4/4
L: 1/8
K: D
A|"D"d<D AG "Bm"F3 D|"Em"G>F ED "A"C<E A2|"G"B,3 B, "D"A,>D FA|"Em"G<A GF "A"E2 a2|"D"d<D AG "Bm"F3 D|
"G"B,>D GB "D"A2 FA|"G"d2 "A"c>B "D"(3Adf (3afd|"Em"e<B "A"cA "D"d2 dA||"D"d<d fd "F#m"c3 A|"G"B>A GB "D"AdFD|"Em"G<G B>G "D"(3FAd (3def|
"E7"e>f ed "A"c2 A2|"D"d<d fd "F#m"c3 A|"G"B<B dB "D"A>d (3FGA|"Em"d2 "A"c>B "D"(3Adf (3afd|"Em"e>B "A"c<A "D"d2 |]

